X: 13932
T: Foxhunters, The
R: reel
M: 4/4
K: Gmajor
|:d2BG dGBG|dGBG AGEG|d2 BG dGBG|AcBG AGEG:|
|:D2DB BAGE|DGBG AGEG|D2 DB BAGE|AcBG AGEG:|
|:gedB GABd|gedB eA A2|gedB GABG|ABcd eA A2:|
|:dggf g3 e|d g3 egdB|dggf g3 d|egdB AGAB:|
|:G2 BG dGBA|G B3 AGAB|G2 BG dGBd|egdB AGAB:|

